X:1
T:Fil et Bobine
R:Bourree
B:Les Panards Dansants tune book
N:originally in D
M:3/8
L:1/8
K:G
B/c/|dgf|d3/2c/d/e/|=fec|d/e/d/c/B/c/| \
dgf|d3/2c/d/e/|=fec|d2:|
B/c/|dBG|A3/2G/A/B/|cBG|A/B/c/A/B/c/| \
dBG|A3/2G/A/B/|1cBG|A2:|2cB/c/B/A/|G2|]
<end>
<start>
